dist/logo-horizontal.def03ae5.svg

<?xml version="1.0" encoding="UTF-8"?>
<svg width="240px" height="32px" viewBox="0 0 240 32" version="1.1" xmlns="http://www.w3.org/2000/svg" xmlns:xlink="http://www.w3.org/1999/xlink">
    <!-- Generator: Sketch 53.2 (72643) - https://sketchapp.com -->
    <title>Group Copy 6</title>
    <desc>Created with Sketch.</desc>
    <g id="mock" stroke="none" stroke-width="1" fill="none" fill-rule="evenodd">
        <g id="Group-Copy-6" transform="translate(0.000000, 1.000000)" fill-rule="nonzero">
            <g id="Group-8-Copy-2">
                <g id="Group-8-Copy">
                    <path d="M4.30920217,23.1524274 L0.828692725,23.1524274 C0.364624799,23.1524274 1.70530257e-13,22.7886036 1.70530257e-13,22.325555 L1.70530257e-13,0.826872408 C1.70530257e-13,0.36382386 0.364624799,0 0.828692725,0 L4.30920217,0 C4.7732701,0 5.1378949,0.36382386 5.1378949,0.826872408 L5.1378949,22.325555 C5.1378949,22.7886036 4.7732701,23.1524274 4.30920217,23.1524274 Z M24.7944863,23.1524274 L21.2476815,23.1524274 C20.7504658,23.1524274 20.2863979,22.8547534 20.0875117,22.3917048 L14.6512874,9.79016931 C14.6181397,9.72401952 14.584992,9.75709441 14.584992,9.79016931 L14.584992,22.325555 C14.584992,22.7886036 14.2203672,23.1524274 13.7562992,23.1524274 L10.2757898,23.1524274 C9.81172187,23.1524274 9.44709707,22.7886036 9.44709707,22.325555 L9.44709707,0.826872408 C9.44709707,0.36382386 9.81172187,0 10.2757898,0 L13.8225947,0 C14.3198103,0 14.7838782,0.297674067 14.9827645,0.760722615 L20.4189888,13.395333 C20.4521365,13.4614828 20.4852842,13.4284079 20.4852842,13.395333 L20.4852842,0.826872408 C20.4852842,0.36382386 20.849909,0 21.3139769,0 L24.7944863,0 C25.2585543,0 25.6231791,0.36382386 25.6231791,0.826872408 L25.6231791,22.325555 C25.6231791,22.7886036 25.2585543,23.1524274 24.7944863,23.1524274 Z M38.2856039,14.4537297 L30.5953354,12.6015355 C30.1312675,12.5023108 29.7997904,12.0392623 29.7997904,11.5762137 L29.7997904,2.48061722 C29.7997904,1.12454647 30.9268125,0 32.2858686,0 L40.9705683,0 C42.3296244,0 43.4566465,1.12454647 43.4566465,2.48061722 L43.4566465,5.02738424 C43.4566465,5.52350769 43.1583171,5.98655623 42.6942492,6.18500561 L39.0811489,7.67337595 C38.7165241,7.83875043 38.3187516,7.57415126 38.3187516,7.1772525 L38.3187516,4.76278507 C38.3187516,4.66356038 38.2524562,4.59741059 38.1530131,4.59741059 L35.1034238,4.59741059 C35.0039807,4.59741059 34.9376853,4.66356038 34.9376853,4.76278507 L34.9376853,8.56639815 C34.9376853,8.66562284 35.0039807,8.73177263 35.1034238,8.76484753 L42.7936923,10.5839668 C43.2577603,10.6831915 43.5892374,11.1462401 43.5892374,11.6092886 L43.5892374,20.6718102 C43.5892374,22.027881 42.4622153,23.1524274 41.1031592,23.1524274 L32.2195732,23.1524274 C30.8605171,23.1524274 29.733495,22.027881 29.733495,20.6718102 L29.733495,18.1250432 C29.733495,17.6289197 30.0318244,17.1658712 30.4958923,16.9674218 L34.1089926,15.4790515 C34.4736174,15.313677 34.8713899,15.5782762 34.8713899,15.9751749 L34.8713899,18.3896424 C34.8713899,18.488867 34.9376853,18.5550168 35.0371284,18.5550168 L38.2856039,18.5550168 C38.385047,18.5550168 38.4513425,18.488867 38.4513425,18.3896424 L38.4513425,14.6521791 C38.4513425,14.5529544 38.385047,14.4868046 38.2856039,14.4537297 Z M52.0087554,23.1524274 L48.528246,23.1524274 C48.0641781,23.1524274 47.6995533,22.7886036 47.6995533,22.325555 L47.6995533,0.826872408 C47.6995533,0.36382386 48.0641781,0 48.528246,0 L52.0087554,0 C52.4728234,0 52.8374482,0.36382386 52.8374482,0.826872408 L52.8374482,22.325555 C52.8374482,22.7886036 52.4728234,23.1524274 52.0087554,23.1524274 Z M69.3450073,23.1524274 L57.9753431,23.1524274 C57.5112751,23.1524274 57.1466503,22.7886036 57.1466503,22.325555 L57.1466503,0.826872408 C57.1466503,0.36382386 57.5112751,0 57.9753431,0 L69.3450073,0 C70.7040633,0 71.8310854,1.12454647 71.8310854,2.48061722 L71.8310854,20.6718102 C71.8310854,22.027881 70.7040633,23.1524274 69.3450073,23.1524274 Z M66.527452,4.59741059 L62.4502838,4.59741059 C62.3508407,4.59741059 62.2845452,4.66356038 62.2845452,4.76278507 L62.2845452,18.3896424 C62.2845452,18.488867 62.3508407,18.5550168 62.4502838,18.5550168 L66.527452,18.5550168 C66.6268951,18.5550168 66.6931905,18.488867 66.6931905,18.3896424 L66.6931905,4.76278507 C66.6931905,4.66356038 66.6268951,4.59741059 66.527452,4.59741059 Z M88.2392014,23.1524274 L76.9358326,23.1524274 C76.4717647,23.1524274 76.1071399,22.7886036 76.1071399,22.325555 L76.1071399,0.826872408 C76.1071399,0.36382386 76.4717647,0 76.9358326,0 L88.2392014,0 C88.7032693,0 89.0678941,0.36382386 89.0678941,0.826872408 L89.0678941,3.77053818 C89.0678941,4.23358673 88.7032693,4.59741059 88.2392014,4.59741059 L81.4107733,4.59741059 C81.3113302,4.59741059 81.2450348,4.66356038 81.2450348,4.76278507 L81.2450348,9.26097097 C81.2450348,9.36019566 81.3113302,9.42634545 81.4107733,9.42634545 L86.1840434,9.42634545 C86.6481114,9.42634545 87.0127362,9.79016931 87.0127362,10.2532179 L87.0127362,12.8661347 C87.0127362,13.3291832 86.6481114,13.6930071 86.1840434,13.6930071 L81.4107733,13.6930071 C81.3113302,13.6930071 81.2450348,13.7591569 81.2450348,13.8583816 L81.2450348,18.3896424 C81.2450348,18.488867 81.3113302,18.5550168 81.4107733,18.5550168 L88.2392014,18.5550168 C88.7032693,18.5550168 89.0678941,18.9188407 89.0678941,19.3818892 L89.0678941,22.325555 C89.0678941,22.7886036 88.7032693,23.1524274 88.2392014,23.1524274 Z" id="Inside" fill="#FFFFFF"></path>
                    <g id="Group-7">
                        <rect id="Rectangle-Copy-16" fill="#FAD64D" x="0" y="27.1387691" width="239.86191" height="3.4453017" rx="1"></rect>
                        <path d="M100.515225,23.1524274 L97.0690738,23.1524274 C96.6095869,23.1524274 96.2485616,22.7886036 96.2485616,22.325555 L96.2485616,0.826872408 C96.2485616,0.36382386 96.6095869,0 97.0690738,0 L108.589066,0 C109.048552,0 109.409578,0.36382386 109.409578,0.826872408 L109.409578,3.77053818 C109.409578,4.23358673 109.048552,4.59741059 108.589066,4.59741059 L101.49984,4.59741059 C101.401378,4.59741059 101.335737,4.66356038 101.335737,4.76278507 L101.335737,9.32712076 C101.335737,9.42634545 101.401378,9.49249524 101.49984,9.49249524 L106.521375,9.49249524 C106.980862,9.49249524 107.341887,9.8563191 107.341887,10.3193677 L107.341887,12.9322845 C107.341887,13.395333 106.980862,13.7591569 106.521375,13.7591569 L101.49984,13.7591569 C101.401378,13.7591569 101.335737,13.8253067 101.335737,13.9245314 L101.335737,22.325555 C101.335737,22.7886036 100.974712,23.1524274 100.515225,23.1524274 Z M117.044535,23.1524274 L113.580394,23.1524274 C113.118509,23.1524274 112.755599,22.7886036 112.755599,22.325555 L112.755599,0.826872408 C112.755599,0.36382386 113.118509,0 113.580394,0 L125.094539,0 C126.447203,0 127.568925,1.12454647 127.568925,2.48061722 L127.568925,12.1715618 C127.568925,13.5276326 126.447203,14.6521791 125.094539,14.6521791 L124.500686,14.6521791 C124.434702,14.6521791 124.368719,14.7183289 124.401711,14.7844787 L128.525688,22.4247797 C128.723639,22.7555287 128.459704,23.1524274 128.096794,23.1524274 L124.401711,23.1524274 C123.906833,23.1524274 123.411956,22.8547534 123.181013,22.4247797 L119.057036,14.7844787 C119.024044,14.7183289 118.925069,14.6521791 118.826093,14.6521791 L118.03429,14.6521791 C117.935314,14.6521791 117.869331,14.7183289 117.869331,14.8175536 L117.869331,22.325555 C117.869331,22.7886036 117.506421,23.1524274 117.044535,23.1524274 Z M122.40794,4.45238989 L118.048818,4.45238989 C117.951226,4.45238989 117.886164,4.51985034 117.886164,4.62104102 L117.886164,9.84922612 C117.886164,9.9504168 117.951226,10.0178773 118.048818,10.0178773 L122.40794,10.0178773 C122.505532,10.0178773 122.570594,9.9504168 122.570594,9.84922612 L122.570594,4.62104102 C122.570594,4.51985034 122.505532,4.45238989 122.40794,4.45238989 Z M144.394087,23.1524274 L134.43038,23.1524274 C133.068673,23.1524274 131.939453,22.027881 131.939453,20.6718102 L131.939453,2.48061722 C131.939453,1.12454647 133.068673,0 134.43038,0 L144.394087,0 C145.755794,0 146.885014,1.12454647 146.885014,2.48061722 L146.885014,20.6718102 C146.885014,22.027881 145.755794,23.1524274 144.394087,23.1524274 Z M141.587147,4.45238989 L137.23732,4.45238989 C137.136939,4.45238989 137.070019,4.51885922 137.070019,4.61856321 L137.070019,18.3112447 C137.070019,18.4109487 137.136939,18.477418 137.23732,18.477418 L141.587147,18.477418 C141.687528,18.477418 141.754448,18.4109487 141.754448,18.3112447 L141.754448,4.61856321 C141.754448,4.51885922 141.687528,4.45238989 141.587147,4.45238989 Z M166.361416,23.1524274 L162.839866,23.1524274 C162.346191,23.1524274 161.885427,22.8547534 161.687957,22.3917048 L156.290441,9.79016931 C156.25753,9.72401952 156.224618,9.75709441 156.224618,9.79016931 L156.224618,22.325555 C156.224618,22.7886036 155.862589,23.1524274 155.401826,23.1524274 L151.946099,23.1524274 C151.485336,23.1524274 151.123307,22.7886036 151.123307,22.325555 L151.123307,0.826872408 C151.123307,0.36382386 151.485336,0 151.946099,0 L155.467649,0 C155.961324,0 156.422088,0.297674067 156.619558,0.760722615 L162.017074,13.395333 C162.049986,13.4614828 162.082897,13.4284079 162.082897,13.395333 L162.082897,0.826872408 C162.082897,0.36382386 162.444926,0 162.905689,0 L166.361416,0 C166.82218,0 167.184208,0.36382386 167.184208,0.826872408 L167.184208,22.325555 C167.184208,22.7886036 166.82218,23.1524274 166.361416,23.1524274 Z M175.080523,4.59741059 L171.130155,4.59741059 C170.669278,4.59741059 170.307161,4.23358673 170.307161,3.77053818 L170.307161,0.826872408 C170.307161,0.36382386 170.669278,0 171.130155,0 L184.429729,0 C184.890605,0 185.252722,0.36382386 185.252722,0.826872408 L185.252722,3.77053818 C185.252722,4.23358673 184.890605,4.59741059 184.429729,4.59741059 L180.51228,4.59741059 C180.413521,4.59741059 180.347681,4.66356038 180.347681,4.76278507 L180.347681,22.325555 C180.347681,22.7886036 179.985564,23.1524274 179.524688,23.1524274 L176.068115,23.1524274 C175.607239,23.1524274 175.245122,22.7886036 175.245122,22.325555 L175.245122,4.76278507 C175.245122,4.66356038 175.179282,4.59741059 175.080523,4.59741059 Z M200.486389,23.1524274 L189.202909,23.1524274 C188.739658,23.1524274 188.375675,22.7886036 188.375675,22.325555 L188.375675,0.826872408 C188.375675,0.36382386 188.739658,0 189.202909,0 L200.486389,0 C200.94964,0 201.313623,0.36382386 201.313623,0.826872408 L201.313623,3.77053818 C201.313623,4.23358673 200.94964,4.59741059 200.486389,4.59741059 L193.669976,4.59741059 C193.570708,4.59741059 193.504529,4.66356038 193.504529,4.76278507 L193.504529,9.26097097 C193.504529,9.36019566 193.570708,9.42634545 193.669976,9.42634545 L198.434847,9.42634545 C198.898098,9.42634545 199.262081,9.79016931 199.262081,10.2532179 L199.262081,12.8661347 C199.262081,13.3291832 198.898098,13.6930071 198.434847,13.6930071 L193.669976,13.6930071 C193.570708,13.6930071 193.504529,13.7591569 193.504529,13.8583816 L193.504529,18.3896424 C193.504529,18.488867 193.570708,18.5550168 193.669976,18.5550168 L200.486389,18.5550168 C200.94964,18.5550168 201.313623,18.9188407 201.313623,19.3818892 L201.313623,22.325555 C201.313623,22.7886036 200.94964,23.1524274 200.486389,23.1524274 Z M220.120821,23.1524274 L216.599271,23.1524274 C216.105596,23.1524274 215.644832,22.8547534 215.447362,22.3917048 L210.049846,9.79016931 C210.016935,9.72401952 209.984023,9.75709441 209.984023,9.79016931 L209.984023,22.325555 C209.984023,22.7886036 209.621995,23.1524274 209.161231,23.1524274 L205.705504,23.1524274 C205.244741,23.1524274 204.882712,22.7886036 204.882712,22.325555 L204.882712,0.826872408 C204.882712,0.36382386 205.244741,0 205.705504,0 L209.227054,0 C209.72073,0 210.181493,0.297674067 210.378963,0.760722615 L215.776479,13.395333 C215.809391,13.4614828 215.842303,13.4284079 215.842303,13.395333 L215.842303,0.826872408 C215.842303,0.36382386 216.204331,0 216.665095,0 L220.120821,0 C220.581585,0 220.943613,0.36382386 220.943613,0.826872408 L220.943613,22.325555 C220.943613,22.7886036 220.581585,23.1524274 220.120821,23.1524274 Z M237.411878,23.1524274 L226.012747,23.1524274 C225.547476,23.1524274 225.181907,22.7886036 225.181907,22.325555 L225.181907,0.826872408 C225.181907,0.36382386 225.547476,0 226.012747,0 L237.411878,0 C238.774456,0 239.904399,1.12454647 239.904399,2.48061722 L239.904399,20.6718102 C239.904399,22.027881 238.774456,23.1524274 237.411878,23.1524274 Z M234.606113,4.45238989 L230.480193,4.45238989 C230.37956,4.45238989 230.312472,4.51885922 230.312472,4.61856321 L230.312472,18.3112447 C230.312472,18.4109487 230.37956,18.477418 230.480193,18.477418 L234.606113,18.477418 C234.706746,18.477418 234.773834,18.4109487 234.773834,18.3112447 L234.773834,4.61856321 C234.773834,4.51885922 234.706746,4.45238989 234.606113,4.45238989 Z" id="FRONTEND" fill="#FFFFFF"></path>
                    </g>
                </g>
            </g>
        </g>
    </g>
</svg>

<svg width="240" height="32" viewBox="0 0 240 32" xmlns="http://www.w3.org/2000/svg"><title>Group Copy 6</title><g fill-rule="nonzero" fill="none"><path d="M4.31 24.152H.828A.82.82 0 0 1 0 23.326v-21.5A.82.82 0 0 1 .829 1h3.48a.82.82 0 0 1 .829.827v21.499a.82.82 0 0 1-.829.826zm20.484 0h-3.546c-.498 0-.962-.297-1.16-.76L14.65 10.79c-.033-.066-.066-.033-.066 0v12.536a.82.82 0 0 1-.829.826h-3.48a.82.82 0 0 1-.829-.826v-21.5A.82.82 0 0 1 10.276 1h3.547c.497 0 .96.298 1.16.76l5.436 12.635c.033.066.066.033.066 0V1.827A.82.82 0 0 1 21.314 1h3.48a.82.82 0 0 1 .83.827v21.499a.82.82 0 0 1-.83.826zm13.492-8.698l-7.69-1.852c-.465-.1-.796-.563-.796-1.026V3.481C29.8 2.125 30.927 1 32.286 1h8.685c1.359 0 2.486 1.125 2.486 2.48v2.547c0 .497-.299.96-.763 1.158l-3.613 1.488a.537.537 0 0 1-.762-.496V5.763c0-.1-.067-.166-.166-.166h-3.05c-.099 0-.165.067-.165.166v3.803c0 .1.066.166.165.199l7.69 1.819c.465.1.796.562.796 1.025v9.063c0 1.356-1.127 2.48-2.486 2.48H32.22c-1.36 0-2.487-1.124-2.487-2.48v-2.547c0-.496.299-.96.763-1.158l3.613-1.488c.365-.165.762.1.762.496v2.415c0 .099.067.165.166.165h3.249c.099 0 .165-.066.165-.165v-3.738c0-.099-.066-.165-.165-.198zm13.723 8.698h-3.48a.82.82 0 0 1-.83-.826v-21.5A.82.82 0 0 1 48.53 1h3.48a.82.82 0 0 1 .828.827v21.499a.82.82 0 0 1-.828.826zm17.336 0h-11.37a.82.82 0 0 1-.828-.826v-21.5A.82.82 0 0 1 57.975 1h11.37c1.36 0 2.486 1.125 2.486 2.48v18.192c0 1.356-1.127 2.48-2.486 2.48zM66.527 5.597H62.45c-.1 0-.165.067-.165.166V19.39c0 .099.066.165.165.165h4.077c.1 0 .166-.066.166-.165V5.763c0-.1-.066-.166-.166-.166zM88.24 24.152H76.936a.82.82 0 0 1-.829-.826v-21.5A.82.82 0 0 1 76.936 1h11.303a.82.82 0 0 1 .829.827V4.77a.82.82 0 0 1-.829.826h-6.828c-.1 0-.166.067-.166.166v4.498c0 .1.066.165.166.165h4.773a.82.82 0 0 1 .829.827v2.613a.82.82 0 0 1-.829.827h-4.773c-.1 0-.166.066-.166.165v4.532c0 .099.066.165.166.165h6.828a.82.82 0 0 1 .829.827v2.944a.82.82 0 0 1-.829.826z" fill="#FFF"/><g transform="translate(0 1)"><rect fill="#FAD64D" y="27.139" width="239.862" height="3.445" rx="1"/><path d="M100.515 23.152H97.07a.816.816 0 0 1-.82-.826V.826c0-.462.36-.826.82-.826h11.52c.46 0 .82.364.82.827V3.77a.816.816 0 0 1-.82.826h-7.09c-.098 0-.163.067-.163.166v4.564c0 .1.065.165.164.165h5.021c.46 0 .82.364.82.827v2.613a.816.816 0 0 1-.82.827H101.5c-.099 0-.164.066-.164.166v8.4a.816.816 0 0 1-.82.827zm16.53 0h-3.465a.818.818 0 0 1-.824-.826V.826c0-.462.363-.826.824-.826h11.515c1.352 0 2.474 1.125 2.474 2.48v9.692c0 1.356-1.122 2.48-2.474 2.48h-.594c-.066 0-.132.066-.1.132l4.125 7.64c.198.332-.066.728-.43.728h-3.694c-.495 0-.99-.297-1.221-.727l-4.124-7.64a.278.278 0 0 0-.23-.133h-.793c-.099 0-.165.066-.165.166v7.508a.818.818 0 0 1-.824.826zm5.363-18.7h-4.36c-.097 0-.162.068-.162.169v5.228c0 .101.065.169.163.169h4.359c.098 0 .163-.068.163-.169V4.621c0-.101-.065-.169-.163-.169zm21.986 18.7h-9.964c-1.361 0-2.49-1.124-2.49-2.48V2.48c0-1.356 1.129-2.481 2.49-2.481h9.964c1.362 0 2.491 1.125 2.491 2.48v18.192c0 1.356-1.13 2.48-2.49 2.48zm-2.807-18.7h-4.35c-.1 0-.167.067-.167.167V18.31c0 .1.067.166.167.166h4.35c.1 0 .167-.066.167-.166V4.62c0-.1-.066-.167-.167-.167zm24.774 18.7h-3.521c-.494 0-.955-.297-1.152-.76L156.29 9.79c-.032-.066-.065-.033-.065 0v12.536a.817.817 0 0 1-.823.826h-3.456a.817.817 0 0 1-.823-.826V.826c0-.462.362-.826.823-.826h3.522c.493 0 .954.298 1.152.76l5.397 12.635c.033.066.066.033.066 0V.827c0-.463.362-.827.823-.827h3.455c.461 0 .823.364.823.827v21.499a.817.817 0 0 1-.823.826zm8.72-18.555h-3.95a.817.817 0 0 1-.824-.826V.827c0-.463.362-.827.823-.827h13.3c.46 0 .823.364.823.827V3.77a.817.817 0 0 1-.823.826h-3.918c-.098 0-.164.067-.164.166v17.563a.817.817 0 0 1-.823.826h-3.457a.817.817 0 0 1-.823-.826V4.763c0-.1-.066-.166-.164-.166zm25.405 18.555h-11.283a.819.819 0 0 1-.827-.826V.826c0-.462.364-.826.827-.826h11.283c.464 0 .828.364.828.827V3.77a.819.819 0 0 1-.828.826h-6.816c-.1 0-.165.067-.165.166V9.26c0 .1.066.165.165.165h4.765c.463 0 .827.364.827.827v2.613a.819.819 0 0 1-.827.827h-4.765c-.1 0-.165.066-.165.165v4.532c0 .099.066.165.165.165h6.816c.464 0 .828.364.828.827v2.944a.819.819 0 0 1-.828.826zm19.635 0h-3.522c-.493 0-.954-.297-1.152-.76L210.05 9.79c-.033-.066-.066-.033-.066 0v12.536a.817.817 0 0 1-.823.826h-3.455a.817.817 0 0 1-.823-.826V.826c0-.462.362-.826.823-.826h3.521c.494 0 .954.298 1.152.76l5.397 12.635c.033.066.066.033.066 0V.827c0-.463.362-.827.823-.827h3.456c.46 0 .823.364.823.827v21.499a.817.817 0 0 1-.823.826zm17.29 0h-11.398a.82.82 0 0 1-.831-.826V.826a.82.82 0 0 1 .83-.826h11.4c1.362 0 2.492 1.125 2.492 2.48v18.192c0 1.356-1.13 2.48-2.492 2.48zm-2.805-18.7h-4.126c-.1 0-.168.067-.168.167V18.31c0 .1.068.166.168.166h4.126c.1 0 .168-.066.168-.166V4.62c0-.1-.067-.167-.168-.167z" fill="#FFF"/></g></g></svg>
